X:1
T:Eindhoven, 87.87 D
T:Eindhoven, 87.87 D
T:Ira David Sankey, 1902
T:Public Domain Courtesy of the Cyber Hymnal™
C:Ira David Sankey, 1902
Z:Public Domain
Z:Courtesy of the Cyber Hymnal™
%%score ( 1 2 ) ( 3 4 )
L:1/8
Q:1/4=100
M:4/4
K:G
V:1 treble 
V:2 treble 
V:3 bass 
V:4 bass 
V:1
 [DB]3 [Ec] [DB][DF][DA][^DG] | [EG]4 ([DF]2 [CE]2) | [B,D]3 [DG] [DG][DG][DF][DG] | %3
 ([FA]4 [Ac]4) | [GB]3 [Gc] [GB][DF][DA][^DG] | [EG]4 ([DF]2 [CE]2) | %6
 [CD]3 [B,E] [CF][Fc] [FB]>[FA] | G6 z2 | [FA]3 G [DF][EG][FA][Ac] | [GB]4 [Gd]4 | %10
 [Fd]3 [Fd] [G^c][Fd][Ge][Gc] | ([Fd]4 [Ac]4) | [GB]3 [=Fd] [Ec][FB][EA]E | [DG]4 ([DF]2 [CE]2) | %14
 [CD]3 [B,E] [CF][Fc] [FB]>[FA] | G6 z2 |] %16
V:2
 x8 | x8 | x8 | x8 | x8 | x8 | x8 | G6 x2 | x3 G x4 | x8 | x8 | x8 | x7 E | x8 | x8 | G6 x2 |] %16
V:3
 [G,,G,]3 [G,,G,] [G,,G,][A,,C][B,,B,][B,,B,] | [C,G,]4 G,4 | %2
 [G,B,]3 [G,B,] [G,B,][B,D][A,C][G,B,] | D8 | [G,D]3 [G,E] [G,,D][A,,C][B,,B,][B,,B,] | %5
 [C,G,]4 [C,G,]4 | [D,F,]3 [D,G,] [D,A,][D,E] [D,D]>[D,C] | [G,B,]6 z2 | %8
 [D,C]3 [D,B,] [D,A,][D,A,][D,D][F,D] | [G,D]4 [G,B,]4 | [A,D]3 [A,D] [A,E][A,D][A,,A,^C][A,,A,E] | %11
 D8 | [G,D]3 [G,B,] [A,C][G,D][C,C][C,G,] | [B,,G,]4 [C,G,]4 | %14
 [D,F,]3 [D,G,] [D,A,][D,E] [D,D]>[D,C] | [G,,G,B,]6 z2 |] %16
V:4
 x8 | x4 (C,2 E,2) | x8 | (D,4 F,4) | x8 | x8 | x8 | x8 | x8 | x8 | x8 | (D,4 F,4) | x8 | x8 | x8 | %15
 x8 |] %16

